X:1
T:English Suite V Sarabande
T:BWV 810
T:J. S. Bach
%%score { ( 1 2 ) | ( 3 4 ) }
L:1/8
M:3/4
K:G
V:1 treble nm="Harp"
V:2 treble 
V:3 bass 
V:4 bass 
V:1
 BA/B/ cB AG | F/A/A/4G/4F/ G2 E2 | dc/d/ ed cB | A/c/B/A/ G>B e>e- | ed/^c/ de f2- | %5
 fe/^d/ ef g/f/e/g/ | f/g/e/f/ gf ed | d/4^c/4B/[cc]/d/ B4 | BA/B/ cB AG | F/A/A/4G/4F/ G2 E2 | %10
 dc/d/ ed cB | A/c/B/A/ G>B e>e- | ed/^c/ de f2- | fe/^d/ ef g/f/e/g/ | f/g/e/f/ gf ed | %15
 d/4^c/4B/[cc]/d/ B4 | f/g/a/g/ f^d ef | g/a/b/a/ g4- | g/f/e/f/ gb ag | f/e/d/e/ f4- | %20
 f=f/e/ fb a/<^g/^f/<e/ | d/=f/e fe/4d/4^c/ dd/4e/4f/ | ed/e/ =fe dc | B/d/d/4c/4B/{B} A4 | %24
 A/G/F/G/ A/B/c c2- | cB/A/ B/^c/d d2 | ^c/B/A/B/ c/^d/e e2- | e^d/^c/ d/e/f f2- | f/e/f/g/ ag fe | %29
 ^d/B/c- cB/A/ GF | BA/B/ cB AG | G/4F/4E/F/G/ E4 | f/g/a/g/ f^d ef | g/a/b/a/ g4- | %34
 g/f/e/f/ gb ag | f/e/d/e/ f4- | f=f/e/ fb a/<^g/^f/<e/ | d/=f/e fe/4d/4^c/ dd/4e/4f/ | %38
 ed/e/ =fe dc | B/d/d/4c/4B/{B} A4 | A/G/F/G/ A/B/c c2- | cB/A/ B/^c/d d2 | ^c/B/A/B/ c/^d/e e2- | %43
 e^d/^c/ d/e/f f2- | f/e/f/g/ ag fe | ^d/B/c- cB/A/ GF | BA/B/ cB AG | G/4F/4E/F/G/ E4 |] %48
V:2
 G z AG FE | ^D2 E2 B,2 | G2 GB AG | F2 G2 z z/ B/ | A3 B/=c/ dc | B3 ^c/^d/ ec | d2 ed ^cB | %7
 ^A2 z F E/4^D/4E/4D/4E/4D/4E/4D/4 | G2 AG FE | ^D2 E2 B,2 | G2 GB AG | F2 G2 z z/ B/ | %12
 A3 B/=c/ dc | B3 ^c/^d/ ec | d2 ed ^cB | ^A2 z F E/4^D/4E/4D/4E/4D/4E/4D/4 | ^d2 z B^cd | e2 e4 | %18
 ^c2 z c de | A2 A4 | B2 z2 z2 | B2 z2 z B | c2 dc BA | ^G2{G} A4 | F z z F GA | D2 z A ^GA/B/ | %26
 E2 z B ^AB/^c/ | F2 z =c BA | GA/B/ cB AG | FE ^D2 z2 | [EG]F/G/ AG FE | ^D2 z B, G,2 | %32
 ^d2 z B^cd | e2 e4 | ^c2 z c de | A2 A4 | B2 z2 z2 | B2 z2 z B | c2 dc BA | ^G2{GG} A4 | %40
 F z z F GA | D2 z A ^GA/B/ | E2 z B ^AB/^c/ | F2 z =c BA | GA/B/ cB AG | FE ^D2 z2 | %46
 [EG]F/G/ AG FE | ^D2 z B, G,2 |] %48
V:3
 E2 E,2 A,2 | B,B,, E,F, G,A, | B,2 C2 C,2 | D,D,, G,,2 z z/ G,/ | F,G, F,E, D,E,/F,/ | %5
 G,A, G,F, E,A, | D,B,, E,2 E,,2 | F,,2 z2 F,2 | E2 E,2 A,2 | B,B,, E,F, G,A, | B,2 C2 C,2 | %11
 D,D,, G,,2 z z/ G,/ | F,G, F,E, D,E,/F,/ | G,A, G,F, E,A, | D,B,, E,2 E,,2 | F,,2 z2 F,2 | %16
 B,B,, z[I:staff -1] AGF | E/F/G/F/ ED ^C[I:staff +1]B, | A,/B,/^C/B,/ z A, B,C | D2 D,C, B,,A,, | %20
 z D, D,D, D,E, | =F,^C, D,E, F, z | A,,A, D,E, =F,D, | E,E,, A,,G,, F,,E,, | D,,2 z D, E,F, | %25
 G,A, G,F, E,F,/^G,/ | A,B, A,G, F,^G,/^A,/ | B,B,, B,A, G,A,/B,/ | CB, A,B, CA, | %29
 B,2 B,,C, B,,A,, | G,,E,, A,,B,, C,A,, | B,,2 z2 B,,2 | B,B,, z[I:staff -1] AGF | %33
 E/F/G/F/ ED ^C[I:staff +1]B, | A,/B,/^C/B,/ z A, B,C | D2 D,C, B,,A,, | z D, D,D, D,E, | %37
 =F,^C, D,E, F, z | A,,A, D,E, =F,D, | E,E,, A,,G,, F,,E,, | D,,2 z D, E,F, | G,A, G,F, E,F,/^G,/ | %42
 A,B, A,G, F,^G,/^A,/ | B,B,, B,A, G,A,/B,/ | CB, A,B, CA, | B,2 B,,C, B,,A,, | %46
 G,,E,, A,,B,, C,A,, | B,,2 z2 B,,2 |] %48
V:4
 x6 | x6 | x6 | x6 | x6 | x6 | x6 | z2 B,,4 | x6 | x6 | x6 | x6 | x6 | x6 | x6 | z2 B,,4 | x6 | %17
 x6 | z2 A,G, F,E, | D,/E,/F,/E,/ z4 | ^G,,G,, G,,G,, G,,G,, | ^G,,G,, G,,G,, G,,G,, | x6 | x6 | %24
 x6 | x6 | x6 | x6 | x6 | x6 | x6 | z2 E,,4 | x6 | x6 | z2 A,G, F,E, | D,/E,/F,/E,/ z4 | %36
 ^G,,G,, G,,G,, G,,G,, | ^G,,G,, G,,G,, G,,G,, | x6 | x6 | x6 | x6 | x6 | x6 | x6 | x6 | x6 | %47
 z2 E,,4 |] %48

